X:29
T:The Wilderness
C:Roy Watrous, 1972
S:The Watrous Book, 1992
M:2/4
L:1/16
Q:1/4=90
K:D
%%MIDI program 72
%%MIDI transpose 8
%%MIDI ratio 3 1
z2|{ABc}d2d2 d2cd|egfe d2cd|e2e2 eagf|edcB Agfe|d2d2 d2cd|egfe d2ef|
gbag fedc|(3efg!beambr1!fe d2::cd|e2A2 a3g|fgef d2ef|g2B2 bagf|
edcB Agfe|d2d2 d2cd|egfe d2ef|gbag fedc|(3efg!beambr1!fe d2:|]

